X:36
T:Denis Murphy's
M:2/4
L:1/8
R:polka
D:Nicolas Buckmelter: Mountain Eire
K:D
f/g/f/e/ d>B|AD FA|GE e>d|cB BA|f/g/f/e/ d>B|AD FA|GE e>f|1 ed d2:|2 ed dB|
Af f/e/f|Ag g/f/g|Af f/e/f|e/f/e/d/ BA|Af f/e/f|Ag g>a|ba gc|1 ed dB:|2 ed d2||
